!!!COM: Peter Cornelius
!!!CNT: Deutsch
!!!TXO: Deutsch
!!!OTL: Auf ein schlummerndes Kind
!!!LYR: Hebbel
!!!OPR: 6 Lieder
!!!OPS: Op. 5
!!!ONM: No. 2
!!!ENC: Ben Fuhrman
!!!YOR: CD Sheet Music, Mid-Romantic German Lieder: The Ultimate Collection.
!!!YOR: CD Sheet Music, LLC 2001
!!!ODT: 1861
!!NB: Only vocal melody encoded.
!!NB: First instance of melodic material only encoded.
!!created: 2/2/10 5:00PM
!!proofed and posted: 2/2/10 5:00PM
**kern	**silbe
*clef G2	*
*k[b-e-a-]	*
*M3/2	*
*MM[Ruhig]	*
=3	=3
8r	.
{8g	{Wenn
8a-	ich,
8ee-	o
8dd	Kind-
8f	-lein,
8cc	vor
8b-	dir
4b-	ste-
4g}	-he,}
=4	=4
8r	.
{8e-	{wenn
8f	ich
8cc	im
8b-	Traum
8e-	dich
8a-	la2-
8g	-cheln
4g	se-
4f}	-he,}
=5	=5
8r	.
{8e-	{wie
8e-	du-
8f	er-
8.g	-glu2hst
16g	so
8.cc	wun-
16bn	-der-
4.bn	-bar,
8bn	da
=6	=6
*M4/4	*
8.dd	ah-
16cc	-ne
4cc	ich
8r	.
8cc	mit
8ee-	su2s-
8g	-sem
=7	=7
4b-	Grau-
4an}	-en:}
2r	.
=8	=8
{4dd	{du2rft'
8cc	ich
8b-	in
8b-	dei-
8g	-ne
8ff	Trau2-
8ee-	-me
=9	=9
([2ee-	schau-
8ee-]	|
8cc)	|
8a-	-en,
8f	dann
=10	=10
8d	wa2r'
8e-	mir
8f#	al-
8an	-les,
(8cc	al-
4b-)	|
8d	-les
=11	=11
2e-}	klar.}
2r	.
=12	=12
1r	.
=13	=13
{4e-	{Dir
8e-	ist
8c	die
8g	Er-
8d	-de
8d	noch
8d	ver-
=14	=14
4d	-schlos-
4en}	-sen,}
2r	.
=15	=15
{4b-	{du
8an	hast
8g	noch
8f	kei-
8en	-ne
8cc	Lust
8b-	ge-
=16	=16
4b-	nos-
4an}	-sen,}
2r	.
=17	=17
{4een	{noch
8dd	ist
8cc	kein
8cc	Glu2ck,
8bn	das
8bn	du
8an	em-
=18	=18
*k[f#c#g#]	*
4g#}	-pfingst}
4r	.
8r	.
{8cc#	{Wie
8b	ko2nn-
8f#	-test
=19	=19
8g#	du
8b	so
8dd	su2ss
8dd	denn
4dd	tra2u-
4cc#}	-men,}
=20	=20
2r	.
8r	.
{8cc#	{wenn
8b	du
8f#	nicht
=21	=21
8g#	noch
8g#	in
8.ee	je-
16dd#	-nen
4dd#	Ra2u-
8cc#	-men,
8b	wo-
=22	=22
4.a#	her
8a#	du
8cc#	ka-
8b	-mest,
8f#	dich
8g#	er-
=23	=23
*k[b-e-a-]	*
*M3/2	*
2a#}	-ging'st?}
2r	.
2r	.
=24	=24
8r	.
{8g-	{Drum
8a-	wenn,
8ee-	o
8ddn	Kind,
8f	ich
8cc-	vor
8b-	dir
4b-	ste-
4g-}	-he,}
=25	=25
8r	.
{8e-	{wenn
8f	ich
8cc-	im
8b-	Traum
8e-	dich
8a-	la2-
8g-	-cheln
4g-	se-
4f}	-he,}
=26	=26
8r	.
{8e-	{wie
8e-	du
8f	er-
8g-	-glu2hst
8g-	so
8.dd-	wun-
16cc	-der-
4.cc	-bar,
8cc	da
=27	=27
*M4/4	*
8.cc	ah-
16g	-ne
4g	ich
8r	.
8cc	mit
8ee-	su2s-
8g	-sem
=28	=28
4b-	Grau-
4an}	-en:}
2r	.
=29	=29
{4dd	{du2rft'
8cc	ich
8b-	in
8b-	dei-
8g	-ne
8ff	Tra2u-
8ee-	-me
=30	=30
([2ee-	schau-
8ee-]	|
8cc)	|
8a-	-en,
8f	dann
=31	=31
8d	wa2r'
8e-	mir
8f#	al-
8an	-les,
(8cc	al-
4b-)	|
8d	-les
=32	=32
2e-}	klar.}
2r	.
==	==
*-	*-
